brandFactory_export/3.Masa/Buscar en la nube_3Masa.svg

<?xml version="1.0" encoding="UTF-8"?>
<svg width="24px" height="24px" viewBox="0 0 24 24" version="1.1" xmlns="http://www.w3.org/2000/svg" xmlns:xlink="http://www.w3.org/1999/xlink">
    <title>3.Masa/Buscar en la nube_3Masa</title>
    <g id="Symbols" stroke="none" stroke-width="1" fill="none" fill-rule="evenodd">
        <g id="3.Masa/Buscar-en-la-nube_3Masa" fill="#5CB615" fill-rule="nonzero">
            <path d="M11.7613445,18.9781513 C9.46890756,18.9747899 7.61008403,17.1159664 7.60672269,14.8235294 C7.60672269,12.5310924 9.46554622,10.6689076 11.7613445,10.6655462 C14.0537815,10.6689076 15.912605,12.5277311 15.9159664,14.8201681 C15.912605,17.1193277 14.0571429,18.9781513 11.7613445,18.9781513 Z M17.3042017,17.0588235 C20.2184874,17.0588235 23.6235294,15.4117647 23.6235294,10.7697479 C23.6235294,6.54453782 20.8268908,4.8 18.0369748,4.54117647 C16.5445378,0.225210084 11.6941176,0 10.7058824,0 C9.43193277,0 3.17647059,0.346218487 2.94789916,7.08907563 C1.66386555,7.60336134 0,8.8605042 0,11.892437 C0,14.8537815 1.71092437,16.8 4.6487395,17.0991597 L6.63865546,17.0957983 C7.50252101,19.0655462 9.45546218,20.4403361 11.7277311,20.4403361 C12.9546218,20.4403361 14.0907563,20.0302521 15.0117647,19.3512605 C15.0184874,19.3579832 15.0218487,19.3714286 15.0285714,19.3781513 L19.0319328,23.4151261 C19.3109244,23.697479 19.7647059,23.7008403 20.0470588,23.4218487 L20.0537815,23.4151261 C20.3361345,23.1294118 20.3361345,22.6722689 20.0537815,22.3865546 L16.0571429,18.3495798 C16.3697479,17.9596639 16.6319328,17.5260504 16.8302521,17.0621849 L17.3042017,17.0588235 Z" id="Buscar-en-la-nube_3Masa"></path>
        </g>
    </g>
</svg>

<svg width="24" height="24" viewBox="0 0 24 24" xmlns="http://www.w3.org/2000/svg"><path d="M11.761 18.978a4.162 4.162 0 01-4.154-4.154 4.16 4.16 0 014.154-4.158 4.156 4.156 0 010 8.313zm5.543-1.92c2.914 0 6.32-1.646 6.32-6.288 0-4.225-2.797-5.97-5.587-6.229C16.545.225 11.694 0 10.706 0c-1.274 0-7.53.346-7.758 7.09C1.664 7.602 0 8.86 0 11.891 0 14.854 1.71 16.8 4.649 17.1l1.99-.003c.864 1.97 2.816 3.344 5.089 3.344 1.227 0 2.363-.41 3.284-1.089.006.007.01.02.017.027l4.003 4.037a.717.717 0 001.015.007l.007-.007a.73.73 0 000-1.028l-3.997-4.037a5.55 5.55 0 00.773-1.288l.474-.003z" fill="#5CB615" fill-rule="nonzero"/></svg>
